X:1
T:Descarga La Moderna
T:Descarga La Moderna
T:Ray Barretto
C:Ray Barretto
%%score 1 2 3 4
L:1/8
Q:1/4=224
M:4/4
K:Bb
V:1 treble transpose=-14 nm="Tenor Saxophone" snm="T. Sax."
V:2 treble transpose=-9 nm="Alto Saxophone" snm="A. Sax."
V:3 bass nm="Trombone" snm="Tbn."
V:4 treble nm="Piano" snm="Pno."
V:1
[K:C]"^Break" .B2 .e2 z .B z .e | z2 z B .e z z2 | BB z B z B z B | z .e z d .e2 z2!fine! || %4
[K:A]"E" z8 | z8 | z8 | z8 |"F" z8 | z8 | z8 | z8 |:"^Theme" [Bd]3 [df] [eg]4- | %13
 [eg][df] z [fa] z [eg] [df]2 | [eg]4 [eg]4- | [eg]6 z2 :: [=c^d]3 [d=g] [=fa]4- | %17
 [fa][^d=g] z [g^a] z [=f=a] [dg]2 | [=fa]4 [fa]4- | [fa]6 z2 :| .B2 .e2 z B z e | z2 z B e z z2 | %22
 BB z B z B z B | z e z d e2 z2!fine! ||"E""^Solos" z8 | z8 | z8 | z8 |"F" z8 | z8 | z8 | %31
"^After solos play Theme & break" z8 |] %32
V:2
[K:G] .f2 .b2 z .f z .b | z2 z f .b z z2 | ff z f z f z f | z .b z a .b2 z2 ||[K:E] z8 | z8 | z8 | %7
 z8 | z8 | z8 | z8 | z8 |: f3 a b4- | ba z c' z b a2 | b4 b4- | b6 z2 :: =g3 ^a =c'4- | %17
 c'^a z =d' z =c' a2 | =c'4 c'4- | c'6 z2 :| .f2 .b2 z f z b | z2 z f b z z2 | ff z f z f z f | %23
 z b z a b2 z2 ||"B" z8 | z8 | z8 | z8 |"C" z8 | z8 | z8 | z8 |] %32
V:3
 .A,2 .D2 z .A, z .D | z2 z A, .D z z2 | A,A, z A, z A, z A, | z .D z C .D2 z2 ||[K:G]"D" z8 | z8 | %6
 z8 | z8 |"Eb" z8 | z8 | z8 | z8 |: E,3 G, A,4- | A,G, z B, z A, G,2 | A,4 A,4- | A,6 z2 :: %16
 ^E,3 ^G, ^A,4- | A,^G, z C z ^A, G,2 | ^A,4 A,4- | A,6 z2 :| .A,2 .D2 z A, z D | z2 z A, D z z2 | %22
 A,A, z A, z A, z A, | z D z C D2 z2 ||"D" z8 | z8 | z8 | z8 |"Eb" z8 | z8 | z8 | z8 |] %32
V:4
 .A2 .d2 z A z d | z2 z A d z z2 | AA z A z A z A | z d z c d2 z2 || %4
[K:G]"D" [Aa]2 C[Ee] z [CEG] z F | z CEG z ^G z A | [Aa]2 CE z [Gce] z F | z CEG z ^G z A | %8
"Eb" [_B_b]2 _D=F z [_A_d=f] z G | z _D=F_A z =A z _B | [_B_b]2 _D=F z [_A_d=f] z G | %11
 z _D=F_A z =A z _B |: [Ac]3 [ce] [df]4- | [df][ce] z [eg] z [df] [ce]2 | [df]4 [df]4- | %15
 [df]6 z2 :: [_B^c]3 [c=f] [_eg]4- | [eg][^c=f] z [f^g] z [_e=g] [cf]2 | [_eg]4 [eg]4- | %19
 [eg]6 z2 :| .A2 .d2 z A z d | z2 z A d z z2 | AA z A z A z A | z d z c d2 z2 ||"D" z8 | z8 | z8 | %27
 z8 |"Eb" z8 | z8 | z8 | z8 |] %32

